material/.icons/material/label-multiple-outline.svg

<svg xmlns="http://www.w3.org/2000/svg" viewBox="0 0 24 24"><path d="M4 18h9l-2 2H4c-.5 0-1.03-.21-1.41-.59C2.21 19.03 2 18.5 2 18V8h2v10M17.63 4.84C17.27 4.33 16.67 4 16 4H8c-1.1 0-2 .9-2 2v8c0 1.1.9 2 2 2h8c.67 0 1.27-.34 1.63-.85L22 10l-4.37-5.16M16 14H8V6h8l3.55 4z"/></svg>

<?xml version="1.0" encoding="UTF-8"?><!DOCTYPE svg PUBLIC "-//W3C//DTD SVG 1.1//EN" "http://www.w3.org/Graphics/SVG/1.1/DTD/svg11.dtd"><svg xmlns="http://www.w3.org/2000/svg" xmlns:xlink="http://www.w3.org/1999/xlink" version="1.1" id="mdi-label-multiple-outline" width="24" height="24" viewBox="0 0 24 24"><path d="M4 18H13L11 20H4C3.5 20 2.97 19.79 2.59 19.41C2.21 19.03 2 18.5 2 18V8H4V18M17.63 4.84C17.27 4.33 16.67 4 16 4H8C6.9 4 6 4.9 6 6V14C6 15.1 6.9 16 8 16H16C16.67 16 17.27 15.66 17.63 15.15L22 10L17.63 4.84M16 14H8V6H16L19.55 10Z" /></svg>
